X:53
T:Hole in the Wall
W:Transposed from Bb.
M:3/2
L:1/4
K:D
uD2 | "G" vB>-c (B/c/) d "D" A d | "Em" G>A (G/A/) B "D" F B | "C" E>-F (E/F/) G "G" D B | "C  Dsus" G3 "D" F "G" G2 :|
"Em" g>-f (e/f/) g "Am" f e | "B7" ^d>-e (d/e/) f B f | "Em" g>-f (e/f/) g "Am" f e | "Em" e3 "B7" ^d "Em" e2 |
"C" E>-F (E/F/) "D"G (F/G/) A | "Em" G>-A (G/A/) B "D" (A/B/) "D7" c | "G" B>-c (B/c/) d "D" D d | "G/Em     B" B3 (A/B/) "G" G2 ||
%
%
